X: 1
T: V'haer enenu
C: Shlomo Carlebach
M: C
L: 1/8
K: Dm
D | "Dm"DA, F>F "A7"FE2E | "Dm"DA, F2 "A7"F E2 E | "Dm"DE F>F FG "D7"A>A |
| "D7"GA BA "Gm"G4 | "C7"GA B2 AG2G | "F"FG A2 GF2D | "Dm"DA, D2 DE F2 |
| "A7"ED ^CE "Dm"D3 "fine":: A | "Dm"(A2 d2 ^c2) d2 |
| "Gm"G6 zB | "C7"B2 d2 ^c2 d2 | "F"A6 zA | "Dm"A2 d2 ^c2 d2 |
| "Gm"E3 d B3 B | "Gm"d2 e2 d2 B2 | "A7"A6 z |]
